img/svg/close-filters.svg

<svg width="25" height="24" viewBox="0 0 25 24" fill="inherit" xmlns="http://www.w3.org/2000/svg">
<path d="M5.5 4L20.5 19L19.5 20L4.5 5L5.5 4Z" fill="inherit"/>
<path d="M20.5 5L5.5 20L4.5 19L19.5 4L20.5 5Z" fill="inherit"/>
</svg>

<svg width="25" height="24" viewBox="0 0 25 24" fill="inherit" xmlns="http://www.w3.org/2000/svg"><path d="M5.5 4l15 15-1 1-15-15 1-1z"/><path d="M20.5 5l-15 15-1-1 15-15 1 1z"/></svg>
